X: 305542
M: 2/4
L: 1/16
K: Bb
|:\
EGFA GBAc | Bdce d2g2 | fdcB ecBA | B2B2B2"^FINE"z2 :|
|:\
dBfd cAfc | Ggbg f=edc | =ecge fcaf | gcbg f=edc |\
dBAG Acfa | gb=eg f2gf | _ecfe dBfe | cAdc BAG"^D.C."F :|


